src/assets/images/line.svg

<?xml version="1.0" encoding="UTF-8" standalone="no"?>
<svg
   width="300"
   height="70"
   viewBox="0 0 300 70"
   version="1.1"
   id="svg2"
   xmlns="http://www.w3.org/2000/svg"
   xmlns:svg="http://www.w3.org/2000/svg">
  <defs
     id="defs2" />
  <!-- Тонкая зауженная линия -->
  <path
     d="m 0,20 c 60,-0.7 120,-0.7 150,-0.7 30,0 90,0 150,0.7 -60,0.7 -120,0.7 -150,0.7 -30,0 -90,0 -150,-0.7 z"
     fill="#feeb7a"
     id="path1"
     style="fill:#ffe791;fill-opacity:1" />
  <!-- Плоская стрелка с зауженными концами -->
  <path
     d="m 120,32 c 12,4 22,12 30,20 8,-8 18,-16 30,-20 -4,1 -18,8 -30,14 -12,-6 -26,-13 -30,-14 z"
     fill="#feeb7a"
     id="path2"
     style="fill:#ffe791;fill-opacity:1" />
</svg>

<svg xmlns="http://www.w3.org/2000/svg" width="300" height="70" viewBox="0 0 300 70">
  <!-- Тонкая зауженная линия -->
  <path
    d="
      M0 20
      C60 19.3, 120 19.3, 150 19.3
      C180 19.3, 240 19.3, 300 20
      C240 20.7, 180 20.7, 150 20.7
      C120 20.7, 60 20.7, 0 20
      Z
    "
    fill="#feeb7a"
  />

  <!-- Плоская стрелка с зауженными концами -->
  <path
    d="
      M120 32
      C132 36, 142 44, 150 52
      C158 44, 168 36, 180 32

      C176 33, 162 40, 150 46
      C138 40, 124 33, 120 32
      Z
    "
    fill="#feeb7a"
  />
</svg>
